actions/22x22-dark/path-break-apart.svg

<svg viewBox="0 0 22 22" xmlns="http://www.w3.org/2000/svg"><path d="m13 4.3333333a4.6666667 4.6666667 0 0 0 -4.6666667 4.6666667 4.6666667 4.6666667 0 0 0  .052083.6666667h-4.0520834v8.0000003h8.0000001v-4.054688a4.6666667 4.6666667 0 0 0  .666667.054688 4.6666667 4.6666667 0 0 0 4.666667-4.666667 4.6666667 4.6666667 0 0 0 -4.666667-4.6666667z" fill="#f2f2f2" fill-opacity=".6"/><path d="m13 3a6 6 0 0 0 -5.9557292 5.3333333h-4.0442708v10.6666667h10.666667v-4.041667a6 6 0 0 0 5.333333-5.958333 6 6 0 0 0 -6-6zm0 1.3333333a4.6666667 4.6666667 0 0 1 4.666667 4.6666667 4.6666667 4.6666667 0 0 1 -4.666667 4.666667 4.6666667 4.6666667 0 0 1 -4.6666667-4.666667 4.6666667 4.6666667 0 0 1 4.6666667-4.6666667zm-8.6666667 5.3333334h2.7083334a6 6 0 0 0 5.2916663 5.2890623v2.710938h-7.9999997z" fill="#1d99f3"/></svg>

<svg xmlns="http://www.w3.org/2000/svg" viewBox="0 0 22 22">
  <defs id="defs3051">
    <style type="text/css" id="current-color-scheme">
      .ColorScheme-Text {
        color:#f2f2f2;
      }
      .ColorScheme-Highlight {
        color:#1d99f3;
      }
      </style>
  </defs>
 <path 
     style="fill:currentColor;fill-opacity:0.6;stroke:none" 
     d="M 13,4.3333333 A 4.6666667,4.6666667 0 0 0 8.3333333,9 4.6666667,4.6666667 0 0 0 8.3854163,9.6666667 l -4.0520834,0 0,8.0000003 8.0000001,0 0,-4.054688 A 4.6666667,4.6666667 0 0 0 13,13.666667 4.6666667,4.6666667 0 0 0 17.666667,9 4.6666667,4.6666667 0 0 0 13,4.3333333 Z"
     class="ColorScheme-Text"
     />
 <path 
     style="fill:currentColor;fill-opacity:1;stroke:none" 
     class="ColorScheme-Highlight"
     d="M 13,3 A 6,6 0 0 0 7.0442708,8.3333333 L 3,8.3333333 3,19 l 10.666667,0 0,-4.041667 A 6,6 0 0 0 19,9 6,6 0 0 0 13,3 Z m 0,1.3333333 A 4.6666667,4.6666667 0 0 1 17.666667,9 4.6666667,4.6666667 0 0 1 13,13.666667 4.6666667,4.6666667 0 0 1 8.3333333,9 4.6666667,4.6666667 0 0 1 13,4.3333333 Z m -8.6666667,5.3333334 2.7083334,0 a 6,6 0 0 0 5.2916663,5.2890623 l 0,2.710938 -7.9999997,0 0,-8.0000003 z"
     />
</svg>
